src/assets/rss3-eth.svg

<svg fill="none" height="49" viewBox="0 0 50 49" width="50" xmlns="http://www.w3.org/2000/svg" xmlns:xlink="http://www.w3.org/1999/xlink"><clipPath id="a"><rect height="16" rx="8" width="16" x="33" y="32"/></clipPath><rect fill="#0072ff" height="48" rx="24" width="48"/><g fill="#fff"><path d="m32.0602 24.891c-.5627-.8355-1.9197-1.2803-2.8909-1.5425-.1132-.0298-.231-.0596-.3561-.0907h-.01c-.5229-.1324-1.1168-.2787-1.5788-.5296-.5296-.2899-.7891-.6659-.7891-1.1492-.0006-.0784.0067-.1567.0218-.2337v-.0139c.0075-.0355.0168-.0706.0278-.1052.0013-.0048.0028-.0094.0047-.0139v-.0053c.0684-.2005.1832-.3819.3349-.5296.3926-.3972 1.0188-.6203 1.7212-.6203h.0219c.5171.0114 1.0261.1311 1.4941.3515.4676.2123.8902.512 1.2452.8831l.0086 1.0069v.0106h.8738v-3.032h-.8718v.6872c0 .005-.0013.01-.0037.0144-.0025.0044-.006.0081-.0102.0108-.008 0-.0186-.0053-.0238-.0106-.3693-.2807-.78-.5021-1.2175-.6561-.469-.1606-.9606-.2459-1.4563-.2529-.5687 0-1.0334.0662-1.4213.1927-.3227.1075-.6224.2743-.8838.4918-.2842.2221-.5125.5075-.6666.8335-.1491.3141-.2273.6572-.2291 1.0049-.0042.2059.0214.4112.0761.6097.0676.2197.1681.428.2979.6176.0113.0179.0245.0351.0364.0523.012.0173.0126.0166.0186.0252l.0079.0106c.5727.7911 1.851 1.1413 2.7837 1.3988l.0258.0066.2072.0576.2245.0602c.4861.119.9616.2776 1.4219.474.2403.1058.4523.2666.619.4694.1542.188.2587.4118.3038.6507.0438.2383.0258.4837-.0523.713-.0915.264-.2431.5031-.4428.6984-.2191.1951-.4763.3425-.7554.433-.2713.0875-.5532.138-.8381.1502-.4558.022-.9123-.0296-1.3517-.1529-.7448-.2357-1.4247-.6905-1.8655-1.2459-.0147-.018-.0258-.0386-.0325-.0609l-.0086-.8659v-.0112h-.8738v3.1696h.8745v-.9268c.3652.3214.7885.57 1.2472.7322.5362.1978 1.1014.3056 1.6728.3191h.0709c.4852 0 1.6205 0 2.5109-.754.2465-.2134.4507-.4712.6018-.76.1452-.2781.24-.5798.28-.8911.0407-.2981.0268-.6012-.0411-.8943-.064-.2853-.1881-.5536-.3641-.7871z"/><path d="m23.4299 24.8912c-.5514-.8314-1.9138-1.2783-2.8909-1.5418-.1112-.0291-.2264-.0575-.3489-.088-1.0592-.2615-2.3779-.5878-2.3931-1.6848 0-.1652.035-.3285.1026-.4793.073-.1583.1744-.3019.2993-.4236.3971-.3919 1.0201-.617 1.7172-.617h.0218c.5168.0112 1.0254.1309 1.4928.3515.4657.2119.886.5118 1.2379.8831l.0172 1.0069v.0113h.8739v-3.032h-.8719v.6872c0 .0049-.0012.0098-.0035.0141-.0023.0044-.0057.0082-.0097.011-.0066 0-.0146 0-.0245-.0106-.3692-.2806-.7799-.502-1.2174-.656-.4691-.1606-.9606-.2459-1.4564-.2529-.572 0-1.038.0662-1.4246.1927-.3215.1077-.6201.2746-.8805.4918-.2841.2221-.5124.5075-.6666.8335-.1499.3148-.2285.6588-.2304 1.0075-.0042.2056.021.4106.0748.6091.0661.2182.1638.4257.29.6156.5488.8553 1.8913 1.2227 2.8717 1.4915l.0232.0059.1946.0537.2052.0549.0192.0053c.4862.1189.9618.2774 1.422.474.2411.1075.4541.2692.6223.4727.1549.19.2598.4157.3052.6567.0431.2386.0244.4843-.0543.7136-.0923.2638-.2449.5025-.4455.6971-.2177.1945-.4739.3409-.7521.4296-.272.0871-.5546.1365-.84.147-.059 0-.1205.0039-.1828.0039-.3989.001-.7961-.0531-1.1803-.1608-.0443-.0139-.0894-.0292-.1324-.045h-.0066c-.0894-.0318-.1787-.0662-.2648-.1066-.432-.1894-.8271-.4536-1.1671-.7805l-.0172-.0166c-.053-.0529-.1066-.1092-.1582-.1681l-.0397-.0457c-.0232-.0271-.0457-.0536-.0662-.0814-.0143-.0179-.0251-.0384-.0318-.0603l-.0086-.8658v-.0113h-.8864v3.1696h.8831v-.9268c.3652.3215.7885.57 1.2472.7322.5362.1978 1.1014.3056 1.6728.3191h.0709c.4825 0 1.6126 0 2.5109-.754.2465-.2133.4506-.4711.6017-.76.1453-.2763.2406-.5762.2814-.8857.0407-.2982.0268-.6012-.041-.8944-.0639-.2874-.1885-.5578-.3655-.7931z"/><path d="m14.468 28.0984-2.3885-3.6112c.4047.0155.8075-.0626 1.177-.2284.5224-.2647.9421-.6004 1.1996-1.0969.2093-.4099.3178-.8638.3164-1.324-.0005-.7239-.2858-1.4185-.7944-1.9337-.5521-.5004-1.2412-.744-2.1078-.744h-4.62799v.9989h.9824v7.9512h-1.06846v.8355h3.10145v-.8355h-.99895v-3.6085h1.67155l2.3401 3.6085h-1.0631v.8355h3.3378v-.8355h-1.044c-.006.0004-.0121-.0004-.0178-.0025-.0057-.002-.0109-.0052-.0153-.0094zm-5.20925-7.9843h2.55995c.7864 0 1.3902.3125 1.696.8493.1473.2696.2222.5727.2173.8799-.0049.3071-.0893.6077-.2451.8724-.3138.5296-.6845.8222-1.5067.8222h-2.72145z"/><path d="m40.4398 26.0532c0-1.1988-.6057-2.0647-1.6106-2.4361.852-.4475 1.228-1.1836 1.228-1.9416 0-1.7497-1.4677-2.6765-3.3815-2.6765-1.0446.008-2.1581.3555-2.9187 1.4233l.7944.5184c.4257-.5727 1.032-1.0149 2.1243-1.0149 1.3902 0 2.3766.5647 2.3766 1.6398 0 1.03-.989 1.604-2.0019 1.604h-1.3796v.993h1.4597c1.2916 0 2.3124.6957 2.2806 1.8794-.0722 1.2578-1.1804 1.9337-2.6314 1.9337-.9334 0-1.9701-.2939-2.744-1.1214l-.0397-.0153-.6779.7421.0318.008c.9731.9129 2.1296 1.3849 3.4298 1.3849 2.0018-.004 3.6601-1.087 3.6601-2.9208z"/><path d="m6.51426 23.5329h-2.51426v1.0268h2.51426z"/><path d="m44.0006 23.5332h-2.5143v1.0268h2.5143z"/></g><g clip-path="url(#a)"><path d="m41.0015 32.0062c4.417 0 7.9969 3.5799 7.9969 7.9969s-3.5799 7.9969-7.9969 7.9969-7.9969-3.5799-7.9969-7.9969 3.5815-7.9969 7.9969-7.9969z" fill="#214cff"/><g fill="#fff"><path d="m41.0028 34.3007v7.9687l3.5018-2.0992zm0 11.4049 3.5018-5.0277-3.5018 2.1179zm0-11.4049v7.9687l-3.5033-2.0992z"/><path d="m41.0028 42.7958v2.9098l-3.5033-5.0277z"/></g></g><rect height="17" rx="8.5" stroke="#b9befe" width="17" x="32.5" y="31.5"/></svg>

<svg width="50" height="49" viewBox="0 0 50 49" fill="none" xmlns="http://www.w3.org/2000/svg">
    <rect width="48" height="48" rx="24" fill="#0072FF"/>
    <path d="M32.0602 24.891C31.4975 24.0555 30.1405 23.6107 29.1693 23.3485C29.0561 23.3187 28.9383 23.2889 28.8132 23.2578H28.8032C28.2803 23.1254 27.6864 22.9791 27.2244 22.7282C26.6948 22.4383 26.4353 22.0623 26.4353 21.579C26.4347 21.5006 26.442 21.4223 26.4571 21.3453V21.3314C26.4646 21.2959 26.4739 21.2608 26.4849 21.2262C26.4862 21.2214 26.4877 21.2168 26.4896 21.2123V21.207C26.558 21.0065 26.6728 20.8251 26.8245 20.6774C27.2171 20.2802 27.8433 20.0571 28.5457 20.0571H28.5676C29.0847 20.0685 29.5937 20.1882 30.0617 20.4086C30.5293 20.6209 30.9519 20.9206 31.3069 21.2917L31.3155 22.2986V22.3092H32.1893V19.2772H31.3175V19.9644C31.3175 19.9694 31.3162 19.9744 31.3138 19.9788C31.3113 19.9832 31.3078 19.9869 31.3036 19.9896C31.2956 19.9896 31.285 19.9843 31.2798 19.979C30.9105 19.6983 30.4998 19.4769 30.0623 19.3229C29.5933 19.1623 29.1017 19.077 28.606 19.07C28.0373 19.07 27.5726 19.1362 27.1847 19.2627C26.862 19.3702 26.5623 19.537 26.3009 19.7545C26.0167 19.9766 25.7884 20.262 25.6343 20.588C25.4852 20.9021 25.407 21.2452 25.4052 21.5929C25.401 21.7988 25.4266 22.0041 25.4813 22.2026C25.5489 22.4223 25.6494 22.6306 25.7792 22.8202C25.7905 22.8381 25.8037 22.8553 25.8156 22.8725C25.8276 22.8898 25.8282 22.8891 25.8342 22.8977L25.8421 22.9083C26.4148 23.6994 27.6931 24.0496 28.6258 24.3071L28.6516 24.3137L28.8588 24.3713L29.0833 24.4315C29.5694 24.5505 30.0449 24.7091 30.5052 24.9055C30.7455 25.0113 30.9575 25.1721 31.1242 25.3749C31.2784 25.5629 31.3829 25.7867 31.428 26.0256C31.4718 26.2639 31.4538 26.5093 31.3757 26.7386C31.2842 27.0026 31.1326 27.2417 30.9329 27.437C30.7138 27.6321 30.4566 27.7795 30.1775 27.87C29.9062 27.9575 29.6243 28.008 29.3394 28.0202C28.8836 28.0422 28.4271 27.9906 27.9877 27.8673C27.2429 27.6316 26.563 27.1768 26.1222 26.6214C26.1075 26.6034 26.0964 26.5828 26.0897 26.5605L26.0811 25.6946V25.6834H25.2073V28.853H26.0818V27.9262C26.447 28.2476 26.8703 28.4962 27.329 28.6584C27.8652 28.8562 28.4304 28.964 29.0018 28.9775H29.0727C29.5579 28.9775 30.6932 28.9775 31.5836 28.2235C31.8301 28.0101 32.0343 27.7523 32.1854 27.4635C32.3306 27.1854 32.4254 26.8837 32.4654 26.5724C32.5061 26.2743 32.4922 25.9712 32.4243 25.6781C32.3603 25.3928 32.2362 25.1245 32.0602 24.891Z" fill="white"/>
    <path d="M23.4299 24.8912C22.8785 24.0598 21.5161 23.6129 20.539 23.3494C20.4278 23.3203 20.3126 23.2919 20.1901 23.2614C19.1309 22.9999 17.8122 22.6736 17.797 21.5766C17.797 21.4114 17.832 21.2481 17.8996 21.0973C17.9726 20.939 18.074 20.7954 18.1989 20.6737C18.596 20.2818 19.219 20.0567 19.9161 20.0567H19.9379C20.4547 20.0679 20.9633 20.1876 21.4307 20.4082C21.8964 20.6201 22.3167 20.92 22.6686 21.2913L22.6858 22.2982V22.3095H23.5597V19.2775H22.6878V19.9647C22.6878 19.9696 22.6866 19.9745 22.6843 19.9788C22.682 19.9832 22.6786 19.987 22.6746 19.9898C22.668 19.9898 22.66 19.9898 22.6501 19.9792C22.2809 19.6986 21.8702 19.4772 21.4327 19.3232C20.9636 19.1626 20.4721 19.0773 19.9763 19.0703C19.4043 19.0703 18.9383 19.1365 18.5517 19.263C18.2302 19.3707 17.9316 19.5376 17.6712 19.7548C17.3871 19.9769 17.1588 20.2623 17.0046 20.5883C16.8547 20.9031 16.7761 21.2471 16.7742 21.5958C16.77 21.8014 16.7952 22.0064 16.849 22.2049C16.9151 22.4231 17.0128 22.6306 17.139 22.8205C17.6878 23.6758 19.0303 24.0432 20.0107 24.312L20.0339 24.3179L20.2285 24.3716L20.4337 24.4265L20.4529 24.4318C20.9391 24.5507 21.4147 24.7092 21.8749 24.9058C22.116 25.0133 22.329 25.175 22.4972 25.3785C22.6521 25.5685 22.757 25.7942 22.8024 26.0352C22.8455 26.2738 22.8268 26.5195 22.7481 26.7488C22.6558 27.0126 22.5032 27.2513 22.3026 27.4459C22.0849 27.6404 21.8287 27.7868 21.5505 27.8755C21.2785 27.9626 20.9959 28.012 20.7105 28.0225C20.6515 28.0225 20.59 28.0264 20.5277 28.0264C20.1288 28.0274 19.7316 27.9733 19.3474 27.8656C19.3031 27.8517 19.258 27.8364 19.215 27.8206H19.2084C19.119 27.7888 19.0297 27.7544 18.9436 27.714C18.5116 27.5246 18.1165 27.2604 17.7765 26.9335L17.7593 26.9169C17.7063 26.864 17.6527 26.8077 17.6011 26.7488L17.5614 26.7031C17.5382 26.676 17.5157 26.6495 17.4952 26.6217C17.4809 26.6038 17.4701 26.5833 17.4634 26.5614L17.4548 25.6956V25.6843H16.5684V28.8539H17.4515V27.9271C17.8167 28.2486 18.24 28.4971 18.6987 28.6593C19.2349 28.8571 19.8001 28.9649 20.3715 28.9784H20.4424C20.9249 28.9784 22.055 28.9784 22.9533 28.2244C23.1998 28.0111 23.4039 27.7533 23.555 27.4644C23.7003 27.1881 23.7956 26.8882 23.8364 26.5787C23.8771 26.2805 23.8632 25.9775 23.7954 25.6843C23.7315 25.3969 23.6069 25.1265 23.4299 24.8912Z" fill="white"/>
    <path d="M14.468 28.0984L12.0795 24.4872C12.4842 24.5027 12.887 24.4246 13.2565 24.2588C13.7789 23.9941 14.1986 23.6584 14.4561 23.1619C14.6654 22.752 14.7739 22.2981 14.7725 21.8379C14.772 21.114 14.4867 20.4194 13.9781 19.9042C13.426 19.4038 12.7369 19.1602 11.8703 19.1602H7.24231V20.1591H8.22471V28.1103H7.15625V28.9458H10.2577V28.1103H9.25875V24.5018H10.9303L13.2704 28.1103H12.2073V28.9458H15.5451V28.1103H14.5011C14.4951 28.1107 14.489 28.1099 14.4833 28.1078C14.4776 28.1058 14.4724 28.1026 14.468 28.0984ZM9.25875 20.1141H11.8187C12.6051 20.1141 13.2089 20.4266 13.5147 20.9634C13.662 21.233 13.7369 21.5361 13.732 21.8433C13.7271 22.1504 13.6427 22.451 13.4869 22.7157C13.1731 23.2453 12.8024 23.5379 11.9802 23.5379H9.25875V20.1141Z" fill="white"/>
    <path d="M40.4398 26.0532C40.4398 24.8544 39.8341 23.9885 38.8292 23.6171C39.6812 23.1696 40.0572 22.4335 40.0572 21.6755C40.0572 19.9258 38.5895 18.999 36.6757 18.999C35.6311 19.007 34.5176 19.3545 33.757 20.4223L34.5514 20.9407C34.9771 20.368 35.5834 19.9258 36.6757 19.9258C38.0659 19.9258 39.0523 20.4905 39.0523 21.5656C39.0523 22.5956 38.0633 23.1696 37.0504 23.1696H35.6708V24.1626H37.1305C38.4221 24.1626 39.4429 24.8583 39.4111 26.042C39.3389 27.2998 38.2307 27.9757 36.7797 27.9757C35.8463 27.9757 34.8096 27.6818 34.0357 26.8543L33.996 26.839L33.3181 27.5811L33.3499 27.5891C34.323 28.502 35.4795 28.974 36.7797 28.974C38.7815 28.97 40.4398 27.887 40.4398 26.0532Z" fill="white"/>
    <path d="M6.51426 23.5329H4V24.5597H6.51426V23.5329Z" fill="white"/>
    <path d="M44.0006 23.5332H41.4863V24.56H44.0006V23.5332Z" fill="white"/>
    <g clip-path="url(#clip0_7361_14948)">
        <path d="M41.0015 32.0062C45.4185 32.0062 48.9984 35.5861 48.9984 40.0031C48.9984 44.4201 45.4185 48 41.0015 48C36.5845 48 33.0046 44.4201 33.0046 40.0031C33.0046 35.5861 36.5861 32.0062 41.0015 32.0062Z" fill="#214CFF"/>
        <path d="M41.0028 34.3007V42.2694L44.5046 40.1702L41.0028 34.3007ZM41.0028 45.7056L44.5046 40.6779L41.0028 42.7958V45.7056ZM41.0028 34.3007V42.2694L37.4995 40.1702L41.0028 34.3007Z" fill="white"/>
        <path d="M41.0028 42.7958V45.7056L37.4995 40.6779L41.0028 42.7958Z" fill="white"/>
    </g>
    <rect x="32.5" y="31.5" width="17" height="17" rx="8.5" stroke="#B9BEFE"/>
    <defs>
        <clipPath id="clip0_7361_14948">
            <rect x="33" y="32" width="16" height="16" rx="8" fill="white"/>
        </clipPath>
    </defs>
</svg>
